!!!OTL: 1c. Die ſchoene Dorothea.
!!!ARE: Europa, Mitteleuropa, Deutschland, Uckermark, Granzow
!!!SCT: E0001E
!!!TXL: @@DE
!!!YEM: Copyright 1995, estate of Helmut Schaffrath.
**kern	**text
*ICvox	*
*M2/4	*
*k[f#]	*
*G:	*
!LO:TX:a:t=Mäßig.	!
!LO:TX:a:t=Granʒow in der Uckermark.	!
{8d	Es
=1	=1
8g	freit
8g	ein
16aL	wil-
16gJ	.
16a/L	-der
16ccJ	.
=2	=2
8b/	Waſ-
16b/L	-ſer-
16aJ	.
4g}	-mann
=3	=3
{16b/L	[von
16aJ	.
16bL	dem
16ccJ	.
8dd	Berg
8ee	bis
=4	=4
8cc/	über
16ddL	die
16ccJ	.
8b;}	See,
{16bL	er
16ccJ	.
=5	=5
8dd	freit
8a	nach
8b/	Kö-
16gL	-nigs
16bJ	.
=6	=6
16aL	Töch-
16gJ	.
16f#L	-ter-
16eJ	.
8d}	-lein,
{16eL	der
16f#J	.
=7	=7
8.g	ſchö-
16d	-nen
8B	Do-
8d	-ro-
=8	=8
4g	-thee.
8r}	.
{16bL	er
16ccJ	.
=9	=9
8dd	freit
8a	nach
8b/	Kö-
16gL	-nigs
16bJ	.
=10	=10
16aL	Töch-
16gJ	.
16f#L	-ter-
16eJ	.
8d}	-lein,
{16eL	der
16f#J	.
=11	=11
8.g	ſchö-
16d	-nen
8B	Do-
8d	-ro-
=12	=12
4g	-thee.
8r}	.
==	==
!!!AGN: Sage, Maerchen -, Zauber - Lied, Ballade ?
!!!ONB: ESAC (Essen Associative Code) Database: ERK1
!!!AMT: simple duple
!!!AIN: vox
!!!EED: Helmut Schaffrath
!!!EEV: 1.0
!!!GTL: Nachtklaenge der Goettersage (Zaubermaeren)
!!!URL-scan: https://rosdok.uni-rostock.de/mcrviewer/recordIdentifier/rosdok_ppn745146120/iview2/phys_0068.iview2?x=-4.404412318551749&y=237.01380088817677&scale=0.6456904138606624&rotation=0&layout=singlePageLayout&logicalDiv=log_0009
!!!ENC: Anna Maria Matuszewska
!!!EEV: 2024/21/11
*-	*-
